svgs/sharp-solid/building-circle-check.svg

<svg xmlns="http://www.w3.org/2000/svg" viewBox="0 0 640 512"><!--! Font Awesome Pro 6.6.0 by @fontawesome - https://fontawesome.com License - https://fontawesome.com/license (Commercial License) Copyright 2024 Fonticons, Inc. --><path d="M384 0L0 0 0 512l144 0 0-128 96 0 0 128 144 0 0-8.2c-39.1-32.3-64-81.1-64-135.8s24.9-103.5 64-135.8L384 0zM64 224l64 0 0 64-64 0 0-64zm160 0l0 64-64 0 0-64 64 0zm32 0l64 0 0 64-64 0 0-64zM128 96l0 64-64 0 0-64 64 0zm32 0l64 0 0 64-64 0 0-64zm160 0l0 64-64 0 0-64 64 0zM640 368a144 144 0 1 0 -288 0 144 144 0 1 0 288 0zm-65.4-32l-11.3 11.3-72 72L480 430.6l-11.3-11.3-40-40L417.4 368 440 345.4l11.3 11.3L480 385.4l60.7-60.7L552 313.4 574.6 336z"/></svg>

<svg xmlns="http://www.w3.org/2000/svg" viewBox="0 0 640 512"><!--! Font Awesome Pro 6.5.2 by @fontawesome - https://fontawesome.com License - https://fontawesome.com/license (Commercial License) Copyright 2024 Fonticons, Inc. --><path d="M384 0H0V512H144V384h96V512H384v-8.2c-39.1-32.3-64-81.1-64-135.8s24.9-103.5 64-135.8V0zM64 224h64v64H64V224zm160 0v64H160V224h64zm32 0h64v64H256V224zM128 96v64H64V96h64zm32 0h64v64H160V96zm160 0v64H256V96h64zM640 368a144 144 0 1 0 -288 0 144 144 0 1 0 288 0zm-65.4-32l-11.3 11.3-72 72L480 430.6l-11.3-11.3-40-40L417.4 368 440 345.4l11.3 11.3L480 385.4l60.7-60.7L552 313.4 574.6 336z"/></svg>
